X: 2
T: The Galway
R: reel
M: 4/4
L: 1/8
K: Gmaj
|:B|AGEG DG,B,D|BAGA BedB|AGED B,DA,D|B,A, (3A,A,A, B,EED|(3EFE DE GEDB,|(3DED B,E DG,B,D|E2GE DEGA|(3Bcd AB G3:|||:B|dG (3GAG (3EFG DG|B,DGB dGBd|ec (3cdc AcFA|DFAd fed^c|dG (3GAG (3EFG DG|B,DGB dGBd|ec (3cdc ecfe|dBAB G3:||


Tune 613	Setting 613

